!!!OTL: 1880. Ringeltanz mit Durchkriechen.
!!!ARE: Europa, Mitteleuropa, Deutschland, Bergisches Land, Barmen; Elberfeld
!!!SCT: E1880
!!!TXL: @@KSH
!!!YEM: Copyright 1995, estate of Helmut Schaffrath.
**kern	**text
*ICvox	*
*M2/4	*
*k[b-]	*
*F:	*
=1	=1
!LO:TX:a:t=Aus Barmen und Elberfeld. Erk II. 2, 42. Firmenich I, 426. Simrock 840.	!
{8cc	Kra-
8b-	-ne,
8a	Kra-
8b-/	-ne,
=2	=2
8cc	ſchwickle
8b-	.
8a	Schwane!
8b-/}	.
=3	=3
{8cc	Mo-
8cc	-ne
8cc	wö_wie
8dd	noh
=4	=4
8cc	Engel-
8b-	-land
8a	fah-
8b-/}	-ren.
=5	=5
{8cc	Engel-
8cc	-land
8cc	es
8dd	ge-
=6	=6
4cc	-ſchlo-
8a	-ten,
8b-}	de
=7	=7
{8cc	Schlöt-
8cc	-tel
8cc	es
8dd	te-
=8	=8
4cc	-bro-
8a	-ken.
8b-}	Wo
=9	=9
{8cc	ſöv
8cc	wie'n
8cc	dann
8dd	met
=10	=10
8cc	wi-
8b-	-er-
8a}	-mak'n?
{8dd	Met
=11	=11
8cc	Bé-
8b-	-ner-
8a	-kes,
8dd	met
=12	=12
8cc	Ste-
8b-	-ner-
8a	-kes.
8r}	.
=13||	=13||
{8dd	Kru-
8cc	-pe,
8b-	krupe
8a	all'
=14	=14
8g	e-
8g	-ner-
8f	-kes!
8r}	.
==	==
!!!AGN: Kinder - Lied, Tanz, Ringelreihen, Bruecken - Spiel
!!!ONB: ESAC (Essen Associative Code) Database: ERK3
!!!AMT: simple duple
!!!AIN: vox
!!!EED: Helmut Schaffrath
!!!EEV: 1.0
!!!GTL: Einige Kinderlieder. d) Spiel- und Tanzliedchen.
!!!URL-scan: https://rosdok.uni-rostock.de/mcrviewer/recordIdentifier/rosdok_ppn745177999/iview2/phys_0609.iview2?x=180.4142115147706&y=304.91387925250456&scale=0.7014306698522895&rotation=0&layout=singlePageLayout
!!!ENC: Anna Maria Matuszewska
!!!EEV: 2025/09/01
*-	*-
